X:1
T: Mrs. Campbell of Monzies
C:
R:Jig
Q:180
K:Bb
M:6/8
L:1/16
|:F2|DEF2F2 F4B2|EFG2G2 G4B2|ABc2c2 c4e2|d2f2b2 f2d2B2|
DEF2F2 F4B2|EFG2G2 G4B2|A3Bc2 F2G2A2|1B6B4:|2B6B4B2|
d3ef2 f2d2B2|e2g2b2 b2g2e2|d3ef2 f2d2B2|A3Bc2 c2A2F2|
d3ef2 f2d2B2|e2g2b2 b2g2e2|d2e2f2 e2d2c2|B6B4e2|
d3ef2 f2d2B2|e2g2b2 b2g2e2|d2e2f2 f2d2B2|A2B2c2 c2A2F2|
G2A2B2 A2B2c2|B2c2d2 e2f2g2|f2e2d2 c2B2A2|B6B4||
